images/zhuyin/22.svg

<svg width="50" height="50" viewBox="0 0 50 50" fill="none" xmlns="http://www.w3.org/2000/svg">
<path d="M31.1875 24.6875C28.75 24.6875 26.0781 24.8516 23.1719 25.1797C20.3594 25.4453 18.5469 25.7344 17.7344 26.0469C17.2812 26.2188 17.0156 26.3047 16.9375 26.3047C16.6719 26.3047 16.2656 26.0703 15.7188 25.6016C15.2812 25.1641 15.0625 24.8281 15.0625 24.5938C15.0625 24.4219 15.1562 24.3359 15.3438 24.3359L15.7891 24.3594C16.0703 24.4062 16.3906 24.4297 16.75 24.4297C17.9375 24.4297 19.4453 24.2969 21.2734 24.0312C24.3047 23.625 27.1641 23.3281 29.8516 23.1406C30.7734 23.125 31.5703 23 32.2422 22.7656C32.5391 22.6719 32.75 22.625 32.875 22.625C33.1875 22.625 33.6094 22.8984 34.1406 23.4453C34.6094 23.9141 34.8438 24.3281 34.8438 24.6875C34.8438 24.9375 34.75 25.0625 34.5625 25.0625C34.4219 25.0625 34.2734 25.0391 34.1172 24.9922C33.6016 24.7891 32.625 24.6875 31.1875 24.6875Z" fill="#333333"/>
<path d="M23.1719 25.1797L23.2189 25.6776L23.228 25.6765L23.1719 25.1797ZM17.7344 26.0469L17.9117 26.5144L17.9139 26.5135L17.7344 26.0469ZM15.7188 25.6016L15.3652 25.9551L15.3788 25.9687L15.3934 25.9812L15.7188 25.6016ZM15.3438 24.3359L15.37 23.8366L15.3569 23.8359H15.3438V24.3359ZM15.7891 24.3594L15.8713 23.8662L15.8435 23.8615L15.8153 23.8601L15.7891 24.3594ZM21.2734 24.0312L21.207 23.5357L21.2015 23.5364L21.2734 24.0312ZM29.8516 23.1406L29.8431 22.6407L29.8299 22.6409L29.8168 22.6418L29.8516 23.1406ZM32.2422 22.7656L32.0916 22.2888L32.0845 22.2911L32.0775 22.2935L32.2422 22.7656ZM34.1406 23.4453L33.7819 23.7937L33.7871 23.7989L34.1406 23.4453ZM34.1172 24.9922L33.9339 25.4574L33.9534 25.4651L33.9735 25.4711L34.1172 24.9922ZM31.1875 24.1875C28.728 24.1875 26.0371 24.353 23.1158 24.6828L23.228 25.6765C26.1191 25.3501 28.772 25.1875 31.1875 25.1875V24.1875ZM23.1249 24.6819C21.713 24.8152 20.5452 24.9551 19.6244 25.1019C18.7128 25.2473 18.0129 25.404 17.5549 25.5802L17.9139 26.5135C18.2684 26.3772 18.8809 26.2332 19.7819 26.0895C20.6736 25.9472 21.8183 25.8098 23.2189 25.6775L23.1249 24.6819ZM17.557 25.5794C17.3335 25.6642 17.1627 25.7253 17.0414 25.7645C16.9804 25.7842 16.9376 25.7966 16.91 25.8035C16.8696 25.8136 16.8903 25.8047 16.9375 25.8047V26.8047C17.0237 26.8047 17.107 26.785 17.1525 26.7736C17.2108 26.7591 17.2774 26.7392 17.3492 26.716C17.4936 26.6693 17.6821 26.6015 17.9117 26.5144L17.557 25.5794ZM16.9375 25.8047C16.9426 25.8047 16.9245 25.8053 16.8766 25.7886C16.8298 25.7723 16.7659 25.7434 16.6835 25.6958C16.5173 25.5999 16.3051 25.4456 16.0441 25.2219L15.3934 25.9812C15.6792 26.2262 15.9436 26.4235 16.1837 26.562C16.4125 26.694 16.673 26.8047 16.9375 26.8047V25.8047ZM16.0723 25.248C15.8664 25.0421 15.7287 24.8763 15.6456 24.7486C15.5558 24.6107 15.5625 24.5672 15.5625 24.5938H14.5625C14.5625 24.8547 14.6786 25.0963 14.8076 25.2943C14.9432 25.5026 15.1336 25.7235 15.3652 25.9551L16.0723 25.248ZM15.5625 24.5938C15.5625 24.5966 15.5597 24.6874 15.4707 24.769C15.3899 24.843 15.3168 24.8359 15.3438 24.8359V23.8359C15.1832 23.8359 14.9695 23.8718 14.795 24.0318C14.6122 24.1994 14.5625 24.419 14.5625 24.5938H15.5625ZM15.3175 24.8352L15.7628 24.8587L15.8153 23.8601L15.37 23.8366L15.3175 24.8352ZM15.7069 24.8526C16.0212 24.905 16.3698 24.9297 16.75 24.9297V23.9297C16.4114 23.9297 16.1194 23.9075 15.8713 23.8662L15.7069 24.8526ZM16.75 24.9297C17.9709 24.9297 19.5049 24.7935 21.3453 24.5261L21.2015 23.5364C19.3857 23.8003 17.9041 23.9297 16.75 23.9297V24.9297ZM21.3399 24.5268C24.362 24.1218 27.2107 23.8261 29.8864 23.6394L29.8168 22.6418C27.1174 22.8302 24.2474 23.1282 21.207 23.5357L21.3399 24.5268ZM29.86 23.6406C30.8203 23.6243 31.6724 23.4939 32.4069 23.2377L32.0775 22.2935C31.4682 22.5061 30.7266 22.6257 29.8431 22.6407L29.86 23.6406ZM32.3928 23.2424C32.6922 23.1479 32.8359 23.125 32.875 23.125V22.125C32.6641 22.125 32.3859 22.1959 32.0916 22.2888L32.3928 23.2424ZM32.875 23.125C32.8925 23.125 32.979 23.1364 33.1538 23.2497C33.3216 23.3584 33.5306 23.5349 33.782 23.7937L34.4993 23.0969C34.2194 22.8089 33.9518 22.5752 33.6977 22.4105C33.4506 22.2504 33.17 22.125 32.875 22.125V23.125ZM33.7871 23.7989C34.2336 24.2453 34.3438 24.5358 34.3438 24.6875H35.3438C35.3438 24.1205 34.9852 23.5828 34.4942 23.0918L33.7871 23.7989ZM34.3438 24.6875C34.3438 24.7204 34.3405 24.7327 34.3411 24.7303C34.3418 24.7274 34.3486 24.7018 34.3734 24.6687C34.4004 24.6329 34.4384 24.6017 34.4825 24.5822C34.5236 24.5639 34.5544 24.5625 34.5625 24.5625V25.5625C34.7782 25.5625 35.0128 25.483 35.1734 25.2688C35.3138 25.0816 35.3438 24.8606 35.3438 24.6875H34.3438ZM34.5625 24.5625C34.4776 24.5625 34.3778 24.5483 34.2609 24.5133L33.9735 25.4711C34.1691 25.5298 34.3662 25.5625 34.5625 25.5625V24.5625ZM34.3004 24.527C33.6852 24.2846 32.6182 24.1875 31.1875 24.1875V25.1875C32.6318 25.1875 33.5179 25.2935 33.9339 25.4574L34.3004 24.527Z" fill="#333333"/>
</svg>

<svg xmlns="http://www.w3.org/2000/svg" width="50" height="50" fill="none"><path fill="#333" d="M31.188 24.688c-2.438 0-5.11.164-8.016.492-2.813.265-4.625.554-5.438.867-.453.172-.718.258-.797.258-.265 0-.671-.235-1.218-.703-.438-.438-.656-.774-.656-1.008 0-.172.093-.258.28-.258l.446.023c.281.047.602.07.961.07 1.188 0 2.695-.132 4.523-.398 3.032-.406 5.891-.703 8.579-.89.921-.016 1.718-.141 2.39-.375.297-.094.508-.141.633-.141.313 0 .734.273 1.266.82.468.47.703.883.703 1.242 0 .25-.094.375-.282.375-.14 0-.289-.023-.445-.07-.515-.203-1.492-.305-2.93-.305Z"/><path fill="#333" d="m23.172 25.18.047.498.009-.002-.056-.496Zm-5.438.867.178.467h.002l-.18-.467Zm-2.015-.445-.354.353.014.014.014.012.326-.38Zm-.375-1.266.026-.5h-.026v.5Zm.445.023.082-.493-.027-.005h-.029l-.026.498Zm5.484-.328-.066-.495h-.006l.072.495Zm8.579-.89-.009-.5h-.026l.035.5Zm2.39-.375-.15-.477-.008.002-.007.003.165.472Zm1.899.68-.36.348.006.005.354-.354Zm-.024 1.546-.183.465.02.008.02.006.143-.479Zm-2.93-.805c-2.459 0-5.15.166-8.071.496l.112.994c2.891-.327 5.544-.49 7.96-.49v-1Zm-8.062.495c-1.412.133-2.58.273-3.5.42-.912.145-1.612.302-2.07.478l.359.934c.354-.137.967-.28 1.868-.424.892-.143 2.036-.28 3.437-.413l-.094-.995Zm-5.568.897c-.223.085-.394.146-.516.186-.06.02-.103.032-.131.038-.04.01-.02.002.027.002v1c.087 0 .17-.02.215-.031.059-.015.125-.035.197-.058.145-.047.333-.114.563-.202l-.355-.935Zm-.62.226c.006 0-.013 0-.06-.016a1.168 1.168 0 0 1-.194-.093 4.483 4.483 0 0 1-.639-.474l-.65.76c.285.244.55.442.79.58.229.132.489.243.753.243v-1Zm-.865-.557a3.302 3.302 0 0 1-.426-.5c-.09-.137-.084-.18-.084-.154h-1c0 .26.117.502.246.7.135.209.326.43.557.661l.707-.707Zm-.51-.654a.265.265 0 0 1-.091.175c-.081.074-.154.067-.127.067v-1a.797.797 0 0 0-.549.196.746.746 0 0 0-.232.562h1Zm-.244.241.445.024.052-.999-.445-.023-.052.998Zm.389.018c.314.052.663.077 1.043.077v-1c-.339 0-.63-.023-.879-.064l-.164.987Zm1.043.077c1.22 0 2.755-.136 4.595-.404l-.143-.99c-1.816.264-3.298.394-4.452.394v1Zm4.59-.403c3.022-.405 5.87-.7 8.546-.888l-.07-.997c-2.699.188-5.569.486-8.609.894l.133.99Zm8.52-.886c.96-.017 1.812-.147 2.547-.403l-.33-.944c-.609.212-1.35.332-2.234.347l.017 1Zm2.533-.399c.3-.094.443-.117.482-.117v-1c-.21 0-.49.07-.783.164l.3.953Zm.482-.117c.017 0 .104.011.279.125.168.108.377.285.628.544l.717-.697a4.82 4.82 0 0 0-.801-.687c-.247-.16-.528-.285-.823-.285v1Zm.912.674c.447.446.557.737.557.889h1c0-.567-.359-1.105-.85-1.596l-.707.707Zm.557.889c0 .032-.004.045-.003.042 0-.003.008-.028.032-.061a.28.28 0 0 1 .11-.087.206.206 0 0 1 .08-.02v1c.215 0 .45-.079.61-.293a.956.956 0 0 0 .17-.581h-1Zm.218-.125c-.084 0-.184-.015-.301-.05l-.288.958c.196.059.393.091.59.091v-1Zm-.262-.036c-.615-.242-1.682-.34-3.112-.34v1c1.444 0 2.33.107 2.746.27l.366-.93Z"/></svg>
